X:980
T:Pride of Rathmore, The
R:reel
Z:transcribed by Dave Marshall
M:C|
K:Emin
|: ~E3F G2EF | GBAG FDD2 | ~E3F GFGB |1 dBAc BEED :|2 dBAc BEE2 |
|: efed Bdeg | fdd^c dfaf | gfed Bde^c | dBAc BEE2 |
efed Bdeg | fdd^c dfaf | bgaf gfe^c | dBAc BEE2 |
|: GBdg eBdB | AD (3DDD FGAc | BEEF GFGB | dBAc BEE2 :|
